blockchains/ethereum/assets/0xB62132e35a6c13ee1EE0f84dC5d40bad8d815206/logo.svg

<svg fill="none" height="250" viewBox="0 0 250 250" width="250" xmlns="http://www.w3.org/2000/svg"><path d="m64.8747 22.247 122.5743 70.7357v72.1503l-187.449-108.2255 60.0748-34.6605c.7373-.398 1.5621-.6064 2.3999-.6064.8379 0 1.6627.2084 2.4.6064z" fill="#3ca9e5"/><path d="m187.449 20.8359-62.5 36.0752 62.5 36.0752z" fill="#2853c3"/><path d="m187.449 20.8359 60.126 34.6605c.723.4399 1.324 1.0545 1.748 1.7872s.656 1.5602.677 2.4064v141.471l-62.551-36.024z" fill="#1a4199"/><path d="m249.949 201.209-60.074 34.661c-.768.443-1.64.677-2.527.677s-1.758-.234-2.526-.677l-122.5241-70.736v-72.2512z" fill="#2853c3"/><path d="m.00008569 56.9062v141.4718c-.005078.872.21560631 1.73.64058831 2.491.424986.762 1.039796 1.4 1.784636 1.854l60.07479 34.66v-144.5026z" fill="#60beff"/><path d="m62.5 237.283 62.449-36.075-62.449-36.075z" fill="#3ca9e5"/></svg>

<svg width="250" height="250" viewBox="0 0 250 250" fill="none" xmlns="http://www.w3.org/2000/svg">
<path d="M64.8747 22.247L187.449 92.9827V165.133L0 56.9075L60.0748 22.247C60.8121 21.849 61.6369 21.6406 62.4747 21.6406C63.3126 21.6406 64.1374 21.849 64.8747 22.247Z" fill="#3CA9E5"/>
<path d="M187.449 20.8359L124.949 56.9111L187.449 92.9863V20.8359Z" fill="#2853C3"/>
<path d="M187.449 20.8359L247.575 55.4964C248.298 55.9363 248.899 56.5509 249.323 57.2836C249.747 58.0163 249.979 58.8438 250 59.69V201.161L187.449 165.137V20.8359Z" fill="#1A4199"/>
<path d="M249.949 201.209L189.875 235.87C189.107 236.313 188.235 236.547 187.348 236.547C186.461 236.547 185.59 236.313 184.822 235.87L62.2979 165.134V92.8828L249.949 201.209Z" fill="#2853C3"/>
<path d="M8.56939e-05 56.9062V198.378C-0.00499231 199.25 0.215692 200.108 0.640674 200.869C1.06566 201.631 1.68047 202.269 2.42531 202.723L62.5001 237.383V92.8804L8.56939e-05 56.9062Z" fill="#60BEFF"/>
<path d="M62.5 237.283L124.949 201.208L62.5 165.133V237.283Z" fill="#3CA9E5"/>
</svg>
